src/assets/globalError.svg

<svg width="147" height="143" viewBox="0 0 147 143" fill="none" xmlns="http://www.w3.org/2000/svg">
<path opacity="0.6" fill-rule="evenodd" clip-rule="evenodd" d="M137 66.9682C137 103.956 107.003 133.933 70.0003 133.933C32.9972 133.933 3 103.956 3 66.9682C3 29.9825 32.9972 0 70.0003 0C107.003 0 137 29.9825 137 66.9682Z" fill="#F1F6F8"/>
<mask id="mask0" mask-type="alpha" maskUnits="userSpaceOnUse" x="0" y="68" width="88" height="67">
<path fill-rule="evenodd" clip-rule="evenodd" d="M1.13155 96.8411L12.3996 75.8074C14.8094 71.3225 19.4809 68.5239 24.5562 68.5239H63.7858C69.0093 68.5239 73.775 71.4694 76.1174 76.1377L86.9951 97.8184C87.5201 98.8699 87.8029 100.029 87.8029 101.206V101.884C87.8029 105.489 85.42 108.809 81.9063 109.583C78.7157 110.287 75.5251 108.879 73.8692 106.205L68.2554 97.1714L63.7858 134.367C63.7858 134.367 53.0001 134.367 41.0001 129.435C29.0001 124.504 23.3581 118.322 23.3581 118.322L19.6693 92.3265L13.1535 103.596L14.7421 134.367H4.68564L0.0949326 102.733C-0.187779 100.709 0.162257 98.6434 1.13155 96.8411Z" fill="#EFC16D"/>
</mask>
<g mask="url(#mask0)">
<rect x="-99" y="-20.9895" width="274" height="205.897" fill="#242424"/>
</g>
<path d="M12.2788 134.999C10.6589 136.501 10.5639 139.031 12.0668 140.65C13.5696 142.27 16.1011 142.365 17.7211 140.863L12.2788 134.999ZM80.6799 71.5772L12.2788 134.999L17.7211 140.863L86.1221 77.4408L80.6799 71.5772Z" fill="url(#paint0_linear)"/>
<path fill-rule="evenodd" clip-rule="evenodd" d="M79.2542 94.245L78.4599 85.0486H69.3189L68.1342 94.245L73.6942 98.2244L79.2542 94.245Z" fill="#F5C5B6"/>
<path fill-rule="evenodd" clip-rule="evenodd" d="M15.0564 133.933L18.2067 137.117L15.043 143H5.79427L4.99999 133.933H15.0564Z" fill="#F5C5B6"/>
<path d="M45.1198 97.4982L34.8281 68.5127H53.8281L45.1198 97.4982Z" fill="white"/>
<path fill-rule="evenodd" clip-rule="evenodd" d="M39.6073 51.9474C39.7957 50.4982 40.94 49.4198 42.3132 49.2162C42.5959 49.1744 42.8921 49.1555 43.1883 49.196C43.8075 49.2769 44.373 49.5411 44.8172 49.9185C47.227 48.6231 48.2771 45.9067 48.2771 45.9067L58.8855 52.7993L57.8893 60.3188C57.62 62.3584 55.5333 63.6174 53.6082 62.8976L49.9868 61.4201L49.0579 70.5234H39.7688L41.5055 55.2851C40.24 54.7324 39.4188 53.3965 39.6073 51.9474Z" fill="#F5C5B6"/>
<path fill-rule="evenodd" clip-rule="evenodd" d="M14.0957 45.6489C16.0073 43.4044 19.0633 42.2087 21.9847 42.5767C23.5329 42.7721 25.2022 43.3545 26.5754 42.6171C27.8274 41.9431 28.312 40.4346 29.0659 39.2227C30.7757 36.4511 34.3971 35.0262 37.5473 35.8917C39.7282 36.4943 42.1111 38.7024 43.013 41.1194C45.0459 40.103 47.3749 39.7242 49.6096 40.0181C54.9542 40.7218 62.1836 44.0083 58.8853 52.799L48.2769 45.9064C48.2769 45.9064 47.2268 48.6227 44.817 49.9182C44.3727 49.5407 43.8073 49.2765 43.1881 49.1956C42.8919 49.1552 42.5957 49.174 42.313 49.2158C40.9398 49.4194 39.7955 50.4978 39.607 51.947C39.4186 53.3961 40.2398 54.7321 41.5052 55.2848L40.9398 59.6619C40.9398 59.6619 36.5511 55.7498 37.4261 49.0851C37.7627 46.5804 38.7993 44.5785 40.2667 43.0916C38.4762 42.8409 36.753 42.9218 34.9086 44.2011C33.2931 45.3307 32.1623 47.0212 30.8699 48.5148C29.3083 50.3131 27.4639 51.8621 25.4311 53.0847C23.1021 54.48 20.3692 55.4654 17.6902 55.0138C15.0111 54.5609 12.5206 52.3164 12.5071 49.5987C12.4936 48.1482 13.1668 46.757 14.0957 45.6489Z" fill="#EC6A6A"/>
<path d="M52.2133 58.7126L52.3419 58.6364L52.2661 58.5075C51.622 57.4121 50.5923 56.6821 49.4515 56.3883C48.3093 56.0941 47.0556 56.2359 45.9627 56.884L45.8343 56.9602L45.9098 57.0889L46.4656 58.0363L46.5417 58.1661L46.6713 58.0894C48.1952 57.1884 50.163 57.6931 51.0614 59.2201L51.1377 59.3498L51.2672 59.2731L52.2133 58.7126Z" fill="#242424" stroke="#242424" stroke-width="0.3"/>
<path d="M143 50.4746C143 69.516 127.556 84.9554 108.5 84.9554C89.4443 84.9554 74 69.516 74 50.4746C74 31.4333 89.4443 15.9939 108.5 15.9939C127.556 15.9939 143 31.4333 143 50.4746Z" fill="white" fill-opacity="0.2" stroke="url(#paint1_linear)" stroke-width="8"/>
<defs>
<linearGradient id="paint0_linear" x1="20" y1="129.435" x2="150.457" y2="38.4194" gradientUnits="userSpaceOnUse">
<stop stop-color="#FFC28F"/>
<stop offset="1" stop-color="#FF807D"/>
</linearGradient>
<linearGradient id="paint1_linear" x1="54" y1="130.934" x2="176.94" y2="10.9329" gradientUnits="userSpaceOnUse">
<stop stop-color="#FFC18E"/>
<stop offset="1" stop-color="#FF7D7D"/>
</linearGradient>
</defs>
</svg>

<svg width="147" height="143" viewBox="0 0 147 143" fill="none" xmlns="http://www.w3.org/2000/svg"><path opacity=".6" fill-rule="evenodd" clip-rule="evenodd" d="M137 66.968c0 36.988-29.997 66.965-67 66.965S3 103.956 3 66.968C3 29.982 32.997 0 70 0s67 29.983 67 66.968z" fill="#F1F6F8"/><mask id="a" maskUnits="userSpaceOnUse" x="0" y="68" width="88" height="67"><path fill-rule="evenodd" clip-rule="evenodd" d="M1.132 96.841L12.4 75.807a13.81 13.81 0 0112.156-7.283h39.23c5.223 0 9.989 2.945 12.331 7.614l10.878 21.68a7.59 7.59 0 01.808 3.388v.678c0 3.605-2.383 6.925-5.897 7.699a7.526 7.526 0 01-8.037-3.378l-5.614-9.034-4.47 37.196S53 134.367 41 129.435c-12-4.931-17.642-11.113-17.642-11.113L19.67 92.326l-6.516 11.27 1.59 30.771H4.685L.095 102.733a9.62 9.62 0 011.037-5.892z" fill="#EFC16D"/></mask><g mask="url(#a)"><path fill="#242424" d="M-99-20.989h274v205.897H-99z"/></g><path d="M12.279 134.999a3.997 3.997 0 00-.212 5.651 4.002 4.002 0 005.654.213l-5.442-5.864zm68.4-63.422L12.28 135l5.442 5.864 68.401-63.422-5.442-5.864z" fill="url(#paint0_linear)"/><path fill-rule="evenodd" clip-rule="evenodd" d="M79.254 94.245l-.794-9.196h-9.141l-1.185 9.196 5.56 3.98 5.56-3.98zM15.056 133.933l3.15 3.184L15.044 143H5.794L5 133.933h10.056z" fill="#F5C5B6"/><path d="M45.12 97.498L34.828 68.513h19L45.12 97.498z" fill="#fff"/><path fill-rule="evenodd" clip-rule="evenodd" d="M39.607 51.947c.189-1.449 1.333-2.527 2.706-2.73.283-.043.58-.061.875-.021.62.08 1.185.345 1.63.723 2.409-1.296 3.46-4.012 3.46-4.012l10.608 6.892-.997 7.52a3.19 3.19 0 01-4.28 2.579l-3.622-1.478-.93 9.103H39.77l1.736-15.238a3.199 3.199 0 01-1.898-3.338z" fill="#F5C5B6"/><path fill-rule="evenodd" clip-rule="evenodd" d="M14.096 45.649c1.911-2.245 4.967-3.44 7.889-3.072 1.548.195 3.217.778 4.59.04 1.252-.674 1.737-2.182 2.49-3.394 1.71-2.772 5.332-4.197 8.482-3.331 2.181.602 4.564 2.81 5.466 5.227a11.495 11.495 0 016.597-1.1c5.344.703 12.574 3.99 9.275 12.78l-10.608-6.893s-1.05 2.717-3.46 4.012a3.158 3.158 0 00-1.629-.722 3.111 3.111 0 00-.875.02c-1.373.203-2.518 1.282-2.706 2.731a3.2 3.2 0 001.898 3.338l-.565 4.377s-4.389-3.912-3.514-10.577c.337-2.505 1.373-4.507 2.84-5.993-1.79-.251-3.513-.17-5.357 1.11-1.616 1.129-2.747 2.82-4.04 4.313a22.752 22.752 0 01-5.438 4.57c-2.329 1.395-5.062 2.38-7.74 1.929-2.68-.453-5.17-2.698-5.184-5.415-.013-1.45.66-2.842 1.589-3.95z" fill="#EC6A6A"/><path d="M52.213 58.713l.129-.077-.076-.129a4.58 4.58 0 00-2.814-2.119 4.579 4.579 0 00-3.49.496l-.128.076.076.129.556.947.076.13.13-.077a3.202 3.202 0 014.39 1.131l.076.13.13-.077.945-.56z" fill="#242424" stroke="#242424" stroke-width=".3"/><path d="M143 50.475c0 19.041-15.444 34.48-34.5 34.48-19.056 0-34.5-15.439-34.5-34.48 0-19.042 15.444-34.481 34.5-34.481 19.056 0 34.5 15.44 34.5 34.48z" fill="#fff" fill-opacity=".2" stroke="url(#paint1_linear)" stroke-width="8"/><defs><linearGradient id="paint0_linear" x1="20" y1="129.435" x2="150.457" y2="38.419" gradientUnits="userSpaceOnUse"><stop stop-color="#FFC28F"/><stop offset="1" stop-color="#FF807D"/></linearGradient><linearGradient id="paint1_linear" x1="54" y1="130.934" x2="176.94" y2="10.933" gradientUnits="userSpaceOnUse"><stop stop-color="#FFC18E"/><stop offset="1" stop-color="#FF7D7D"/></linearGradient></defs></svg>
